src/pos-icons/shape-plus.svg

<svg height="24" viewBox="0 0 24 24" width="24" xmlns="http://www.w3.org/2000/svg"><path d="m2 2h9v9h-9zm15.5 0c2.5 0 4.5 2 4.5 4.5s-2 4.5-4.5 4.5-4.5-2-4.5-4.5 2-4.5 4.5-4.5m-11 12 4.5 8h-9zm12.5 3h3v2h-3v3h-2v-3h-3v-2h3v-3h2z"/></svg>

<?xml version="1.0" encoding="UTF-8"?><!DOCTYPE svg PUBLIC "-//W3C//DTD SVG 1.1//EN" "http://www.w3.org/Graphics/SVG/1.1/DTD/svg11.dtd"><svg xmlns="http://www.w3.org/2000/svg" xmlns:xlink="http://www.w3.org/1999/xlink" version="1.1" id="mdi-shape-plus" width="24" height="24" viewBox="0 0 24 24"><path d="M2,2H11V11H2V2M17.5,2C20,2 22,4 22,6.5C22,9 20,11 17.5,11C15,11 13,9 13,6.5C13,4 15,2 17.5,2M6.5,14L11,22H2L6.5,14M19,17H22V19H19V22H17V19H14V17H17V14H19V17Z" /></svg>
